X:136
T:Harvest is in, The
M:C |
L:1/8
B:Thompson's Compleat Collection of 200 Favourite Country Dances, vol. 2 (London, 1765)
Z:Transcribed and edited by Flynn Titford-Mock, 2007
Z:abc's:AK/Fiddler's Companion
K:A
A2 [A,2A2] AcBA | B2E2 BdcB | c2A2 cedc | BAGF E4 | A2 [A,2A2] AcBA | B2E2 BdcB |
ce^df egfa | gef^d e4 :: ecac ecac | d2 cB BedE | BedE c2 BA |
AEcA ecfd | geaf {a}g2 fe | a(f/g/a)f e(c/d/e)c | d(B/c/d)c BGEe | caBg a2A2 :|

